icons/linear-new-ohter-like-thumb-up.svg

<svg xmlns="http://www.w3.org/2000/svg" width="32px" height="32px" viewBox="0 0 32 32" version="1.1">
    <title>linear-new-ohter-like-thumb-up</title>
    <g id="linear-new-ohter-like-thumb-up" stroke-width="1" fill-rule="evenodd">
        <path d="M3,30 C2.44771525,30 2,29.5522847 2,29 L2,14 C2,13.4477153 2.44771525,13 3,13 L9.332,12.9996974 L14.0769231,1.61538462 C14.299758,1.0805809 14.9290087,0.84647036 15.4472136,1.10557281 L17.7888544,2.2763932 C19.1439905,2.95396126 20,4.33901373 20,5.85410197 L20,11 L26.4242336,11 C28.566429,11 30.3153124,12.6839685 30.4193383,14.8003597 L30.4242336,15 C30.4242336,15.2330444 30.4038675,15.465643 30.3633678,15.6951413 L28.4221913,26.6951413 C28.0848802,28.6065711 26.4240214,30 24.4830571,30 L3,30 Z M9,15 L4,15 L4,28 L9,28 L9,15 Z M15.511,3.373 L11,14.199 L11,28 L24.4830571,28 C25.3996236,28 26.1912664,27.3785479 26.4184769,26.5043833 L26.4526242,26.3475707 L28.3938007,15.3475707 C28.4140505,15.2328215 28.4242336,15.1165222 28.4242336,15 C28.4242336,13.8954305 27.5288031,13 26.4242336,13 L19,13 C18.4477153,13 18,12.5522847 18,12 L18,5.85410197 C18,5.09655785 17.5719952,4.40403161 16.8944272,4.06524758 L15.511,3.373 Z" id="&#24418;&#29366;" fill-rule="nonzero" />
    </g>
</svg>

<svg xmlns="http://www.w3.org/2000/svg" viewBox="0 0 32 32"><path fill="currentColor" d="M3 30a1 1 0 0 1-1-1V14a1 1 0 0 1 1-1h6.332l4.745-11.385a1 1 0 0 1 1.37-.51l2.342 1.171A4 4 0 0 1 20 5.854V11h6.424a4 4 0 0 1 3.995 3.8l.005.2a4 4 0 0 1-.06.695l-1.942 11A4 4 0 0 1 24.483 30zm6-15H4v13h5zm6.511-11.627L11 14.199V28h13.483a2 2 0 0 0 1.935-1.496l.035-.156 1.94-11A2 2 0 0 0 26.425 13H19a1 1 0 0 1-1-1V5.854a2 2 0 0 0-1.106-1.789z"/></svg>
